!!!!SEGMENT: pl-wtm--r-66-n--001-008_noskowski-zygmunt--piesni-ludowe-op-51-od-krakowa.krn
!!!cenid: 18xx:2286
!!!COM: Noskowski, Zygmunt
!!!COM-rismID: pe106604
!!!CDT: 1846/05/02-1909/07/23
!!!CNT: Polish
!!!GTL: Pieśni ludowe op. 51
!!!OTL: Od Krakowa
!!!OMV: 008
!!!PDT:
!!!AGN: Secular; Song
!!!YEC: Copyright 2022 Narodowy Instytut Fryderyka Chopina (https://polishscores.org)
!!!YEM: License CC-BY-4.0 (https://creativecommons.org/licenses/by/4.0)
!!!SMS-siglum: PL-Wtm
!!!SMS-shelfmark: R 66/N
!!!SMS-shelfwork: 001-008 G
!!!SMS-variant:
!!!SMS-altvar:
!!!NIFC-rismSourceID: 1001096670
!!!NIFC-rismChildID: 1001096670
!!!NIFC-islandoraID:
!!!URL-pdf-islandora:
!!!URL-scan:
!!!IIIF:
!!!ONB-nifc: UWAGA: na podstawie partytur z folderu pl-wtm-r66n
!!!OMD: Allegretto
!!!AIN: 1 bass 1 tenor
!!!key: D
**kern	**text	**text	**mod-text	**mod-text	**dynam	**mod-dynam	**kern	**text	**text	**dynam
*part2	*	*	*	*	*	*	*part1	*	*	*
*staff2	*	*	*	*	*	*	*staff1	*	*	*
*Ibass	*	*	*	*	*	*	*Itenor	*	*	*
*ICvox	*	*	*	*	*	*	*ICvox	*	*	*
*IGcoro	*	*	*	*	*	*	*IGcoro	*	*	*
*I"Basy	*	*	*	*	*	*	*I"Tenory	*	*	*
*I'B.	*	*	*	*	*	*	*I'T.	*	*	*
*mI"Bassi	*	*	*	*	*	*	*mI"Tenori	*	*	*
*mI'B	*	*	*	*	*	*	*mI'T	*	*	*
*clefF4	*	*	*	*	*	*	*clefG2v2	*	*	*
*k[f#c#]	*	*	*	*	*	*	*k[f#c#]	*	*	*
*D:	*	*	*	*	*	*	*D:	*	*	*
*M2/4	*	*	*	*	*	*	*M2/4	*	*	*
*>[A,B,B,A]	*	*	*	*	*	*	*>[A,B,B,A]	*	*	*
=1	=1	=1	=1	=1	=1	=1	=1	=1	=1	=1
*^	*	*	*	*	*	*	*	*	*	*
*	*	*	*	*	*	*	*	*^	*	*	*
*>A	*>A	*	*	*	*	*	*	*>A	*>A	*	*	*
!!LO:TX:t=P:problem:all\left, middle right:global
!	!	!	!	!	!	!	!	!LO:TX:t=P:problem=w źródle brak przenośnika oktawowego przy kluczu	!	!	!	!
!	!	!LO:TX:a:t=P:problem=w źródle tekst pod dolną pięciolinią	!	!LO:TX:a:t=P:problem=w źródle tekst pod dolną pięciolinią	!	!	!	!	!	!	!	!
!	!	!	!	!	!	!LO:DY:b:rj	!LO:DY:b:rj	!	!	!LO:MO:null:mod=[Hej,	!	!LO:DY:b:rj
4F#/	4D\	Hej,	.	Hej,	.	p	p	2rf	4A\	.	.	p
!	!	!	!	!	!	!	!	!	!	!LO:MO:null:mod=hej,	!	!
4F#/	4AA\	hej,	.	hej,	.	.	.	.	4A\	.	.	.
=2	=2	=2	=2	=2	=2	=2	=2	=2	=2	=2	=2	=2
!	!	!	!	!	!	!	!	!	!	!LO:MO:null:mod=hej,	!	!
4F#/	4D\	hej,	.	hej,	.	.	.	2rf	4A\	.	.	.
!	!	!	!	!	!	!	!	!	!	!LO:MO:null:mod=hej,]	!	!
4F#/	4AA\	hej,	.	hej,	.	.	.	.	4A\	.	.	.
=3	=3	=3	=3	=3	=3	=3	=3	=3	=3	=3	=3	=3
!	!	!	!	!	!	!	!	!LO:TX:a:t=P:problem=w źródle zwrotka 1i 4 przez pierwsze 10 taktów nad górną pięciolinią	!	!	!	!
!	!	!	!	!	!	!	!	!	!	!	!	!LO:DY:a:rj
4G/	4C#\	hej,	.	hej,	.	.	.	8A/	4A\	1. Od	4. Si-	mf
.	.	.	.	.	.	.	.	8g/	.	Kra-	-wy	.
4A/	4AA\	hej,	.	hej,	.	.	.	8.g/	4c#\	-ko-	ko-	.
.	.	.	.	.	.	.	.	16e/	.	-wa	-nik	.
=4	=4	=4	=4	=4	=4	=4	=4	=4	=4	=4	=4	=4
4F#/	4D\	hej,	.	hej,	.	.	.	(>8f#/	4A\	ja-	si-	.
.	.	.	.	.	.	.	.	4d/)	.	.	.	.
4F#/	4AA\	hej,	.	hej,	.	.	.	.	4A\	.	.	.
.	.	.	.	.	.	.	.	(<16c#/LL	.	-dę	-wy	.
.	.	.	.	.	.	.	.	16B/JJ)	.	.	.	.
=5	=5	=5	=5	=5	=5	=5	=5	=5	=5	=5	=5	=5
!	!	!	!	!	!	!	!	!	!	!LO:MO:mod=krze-	!	!
4G/	4C#\	hej,	.	hej,	.	.	.	8A/	4A\	krz-	zie-	.
.	.	.	.	.	.	.	.	8A/	.	-mie-	-lo-	.
4G/	4AA\	hej,	.	hej,	.	.	.	8B/	4A\	-ni-	-ne	.
.	.	.	.	.	.	.	.	8c#/	.	-sta	po-	.
=6	=6	=6	=6	=6	=6	=6	=6	=6	=6	=6	=6	=6
8F#/	8D\	hej,	.	hej,	.	.	.	4d/	8A\	dro-	-prę-	.
4F#/	4D\	hej,	.	hej,	.	.	.	.	4B\	.	.	.
.	.	.	.	.	.	.	.	4f#/	.	-ga,	-gi,	.
8F#/	8AA\	hej,	.	hej,	.	.	.	.	8A\	.	.	.
!!LO:LB:g=original
=7	=7	=7	=7	=7	=7	=7	=7	=7	=7	=7	=7	=7
!	!	!	!	!	!	!	!	!	!	!LO:MO:mod=daj	!LO:MO:mod=ko-	!
4G/	4C#\	hej,	.	hej,	.	.	.	8A/	4A\	Daj	Ko-	.
.	.	.	.	.	.	.	.	8g/	.	mi	-chaj-	.
4A/	4AA\	hej,	.	hej,	.	.	.	8.g/	4c#\	dzie-	-cie	.
.	.	.	.	.	.	.	.	16e/	.	-wczę	mnie	.
=8	=8	=8	=8	=8	=8	=8	=8	=8	=8	=8	=8	=8
4F#/	4D\	hej,	.	hej,	.	.	.	(>8f#/	4A\	bu-	pan-	.
.	.	.	.	.	.	.	.	4d/)	.	.	.	.
4F#/	4AA\	hej,	.	hej,	.	.	.	.	4A\	.	.	.
.	.	.	.	.	.	.	.	(<16c#/LL	.	-zi,	-ny,	.
.	.	.	.	.	.	.	.	16B/JJ)	.	.	.	.
=9	=9	=9	=9	=9	=9	=9	=9	=9	=9	=9	=9	=9
4G/	4C#\	hej,	.	hej,	.	.	.	8A/	4A\	bój	bom	.
.	.	.	.	.	.	.	.	8A/	.	się	ja	.
4G/	4AA\	hej,	.	hej,	.	.	.	8B/	4A\	Pa-	chło-	.
.	.	.	.	.	.	.	.	8c#/	.	-na	-piec	.
=10	=10	=10	=10	=10	=10	=10	=10	=10	=10	=10	=10	=10
8F#/	8D\	hej,	.	hej,	.	.	.	4d/	8A\	Bo-	tę-	.
4F#/	4D\	hej,	.	hej,	.	.	.	.	4B\	.	.	.
.	.	.	.	.	.	.	.	8d/	.	-ga.	-gi.	.
8F#/	8D\	hej,	.	hej,	.	.	.	8r	8A\	.	.	.
=11	=11	=11	=11	=11	=11	=11	=11	=11	=11	=11	=11	=11
!	!	!	!	!	!	!LO:DY:a:rj	!LO:DY:a:rj	!	!	!	!	!LO:DY:a:rj
8G/	8AA\	.	.	[Od	Si-	f	f	8A/	8A\	Od	Si-	f
8E/	8AA\	.	.	Kra-	-wy	.	.	8g/	8c#\	Kra-	-wy	.
8.B/	8.AA\	.	.	-ko-	ko-	.	.	8.g/	8.c#\	-ko-	ko-	.
16G/	16AA\	.	.	-wa	-nik	.	.	16e/	16c#\	-wa	-nik	.
!!LO:LB:g=original
=12	=12	=12	=12	=12	=12	=12	=12	=12	=12	=12	=12	=12
(8A/	4.D\	.	.	ja-	si	.	.	(>8f#/	(<8d\	ja-	si	.
4F#/)	.	.	.	.	.	.	.	4d/)	4A\)	.	.	.
8D/	8AA\	.	.	-dę,	wy,	.	.	(<16c#/LL	8F#\	-dę,	wy,	.
.	.	.	.	.	.	.	.	16B/JJ)	.	.	.	.
=13	=13	=13	=13	=13	=13	=13	=13	=13	=13	=13	=13	=13
8C#/	8AA\	.	.	od	si-	.	.	8A/	8G\	od	si-	.
8E/	8C#\	.	.	pan-	-wo-	.	.	8A/	8G\	pan-	-wo-	.
8D/	8BB\	.	.	-ny	-jabł-	.	.	8B/	8G\	-ny	-jabł-	.
8E/	8AA\	.	.	Ma-	-ko-	.	.	8c#/	8G\	Ma-	-ko-	.
=14	=14	=14	=14	=14	=14	=14	=14	=14	=14	=14	=14	=14
!	!	!	!	!	!	!LO:HP:a	!LO:HP:a	!	!	!	!	!
(>4F#/	(<4D\	.	.	-ry-	-wi-	<	<	(>4d/	(<4A\	-ry-	-wi-	<
!	!	!	!	!	!LO:MO:mod=-ty,	!	!	!	!	!	!LO:MO:mod=-ty,	!
4D/)	4BB\)	.	.	-i,	-ty	[	[	4f#/)	4G#X\)	-i,	-ty	[
=15	=15	=15	=15	=15	=15	=15	=15	=15	=15	=15	=15	=15
!	!	!	!	!	!LO:MO:mod=był-	!	!	!	!	!	!LO:MO:mod=był-	!
8E/	8C#\	.	.	daj	Był-	.	.	8A/	8Gn\	daj	Był-	.
8C#/	8AA\	.	.	mi	-bym	.	.	8g/	8A\	mi	-bym	.
8.E/	8.FF#\	.	.	dziew-	daw-	.	.	8.g/	8.A#X\	dziew-	daw-	.
16F#/	16C#\	.	.	-czę	-no	.	.	16e/	16A#\	-czę	-no	.
=16	=16	=16	=16	=16	=16	=16	=16	=16	=16	=16	=16	=16
4.F#/	(>8D\	.	.	bu-	księ-	.	.	(<8f#/	4.B\	bu-	księ-	.
.	4BB\)	.	.	.	.	.	.	4d/)	.	.	.	.
8E/	(<16E\LL	.	.	-zi	-dzem,	.	.	(<16c#/LL	8G#X\	-zi	-dzem,	.
.	16D\JJ)	.	.	.	.	.	.	16B/JJ)	.	.	.	.
!!LO:LB:g=original
=17	=17	=17	=17	=17	=17	=17	=17	=17	=17	=17	=17	=17
!	!	!	!	!	!LO:MO:mod=że-	!	!	!	!	!	!LO:MO:mod=że-	!
8E/	8C#\	.	.	nie	Że-	.	.	8A/	8Gn\	nie	Że-	.
8D/	8D\	.	.	u-	-by	.	.	8A/	8F#\	u-	-by	.
8G/	8G\	.	.	-my-	nie	.	.	8B/	8G\	-my-	nie	.
8G/	8E\	.	.	-kaj	ko-	.	.	8c#/	8A\	-kaj	ko-	.
=18	=18	=18	=18	=18	=18	=18	=18	=18	=18	=18	=18	=18
4F#/	4D\	.	.	mi	-bie-	.	.	4d/	4A\	mi	-bie-	.
!	!	!	!	!	!	!	!	!	!	!LO:MO:mod=jej.	!	!
8F#/	8D\	.	.	jej.	-ty.	.	.	8d/	8A\	jej	-ty.	.
!	!	!	!	!	!	!	!	!LO:TX:b:Bi:t=Fine:mod=	!	!	!	!
8r;>	8ryy	.	.	.	.	.	.	8rB;>	8ryy	.	.	.
!!LO:TX:a:rj:B:t=:mod=Fine
=19!|:	=19!|:	=19!|:	=19!|:	=19!|:	=19!|:	=19!|:	=19!|:	=19!|:	=19!|:	=19!|:	=19!|:	=19!|:
!!!OMD:
!!!OMD-mod: Poco meno mosso
*>B	*>B	*	*	*	*	*	*	*>B	*>B	*	*	*
!	!	!	!	!	!	!	!	!LO:TX:a:Bi:t=Poco meno mosso.:mod=	!	!	!	!
!	!	!	!	!	!	!LO:DY:b:rj	!LO:DY:b:rj	!	!	!	!	!LO:DY:b:rj
8.D/	8.D\	.	.	2. Ach!	3. Ser-	p	p	8.B/	8.B\	2. Ach!	3. Ser-	p
16F#/	16F#\	.	.	mo-	-ce	.	.	16c#/	16A#X\	mo-	-ce	.
8F#/	8BB\	.	.	-ja	nie	.	.	8d/	8B\	-ja	nie	.
8F#/	8D\	.	.	Ma-	wys-	.	.	8d/	8B\	Ma-	wys-	.
=20	=20	=20	=20	=20	=20	=20	=20	=20	=20	=20	=20	=20
8F#/	4F#\	.	.	-ry-	-ko-	.	.	8d/	8B\	-ry-	-ko-	.
(>4F#/	.	.	.	-siu,	-czy,	.	.	(>4c#/	(<4A#X\	-siu,	-czy,	.
.	4FF#\	.	.	.	.	.	.	.	.	.	.	.
8E/)	.	.	.	.	.	.	.	8A#/)	8F#\)	.	.	.
=21	=21	=21	=21	=21	=21	=21	=21	=21	=21	=21	=21	=21
!	!	!	!	!	!LO:MO:mod=o-	!	!	!	!	!LO:MO:mod=mo-	!LO:MO:mod=o-	!
8D/	8BB\	.	.	mo-	O-	.	.	(>16B/LL	8F#\	Mo-	O-	.
.	.	.	.	.	.	.	.	16A#X/JJ)	.	.	.	.
8F#/	8D\	.	.	-je	-czy	.	.	(>16B/LL	8F#\	-je	-czy	.
.	.	.	.	.	.	.	.	16c#/JJ)	.	.	.	.
8E#X/	8C#\	.	.	mod-	nie	.	.	8d/	8B\	mod-	nie	.
8E#/	8C#\	.	.	-re	wy-	.	.	8d/	8B\	-re	wy-	.
!!LO:LB:g=original
=22	=22	=22	=22	=22	=22	=22	=22	=22	=22	=22	=22	=22
4En/	8FF#\	.	.	o-	-pad-	.	.	8d/	8B\	o-	-pad-	.
.	4FF#\	.	.	.	-ną,	.	.	4c#/	4A#X\	-czy,	-ną,	.
(8G/L	.	.	.	-czy,	.	.	.	.	.	.	.	.
8F#/J)	8r	.	.	.	.	.	.	8rB	8ryy	.	.	.
=23	=23	=23	=23	=23	=23	=23	=23	=23	=23	=23	=23	=23
!	!	!	!	!	!LO:MO:mod=a	!	!	!	!	!LO:MO:mod=led-	!LO:MO:mod=a	!
8F#/	8BB\	.	.	led-	A	.	.	8d/	8B\	Led-	A	.
(>16F#/LL	(<16BB\LL	.	.	-wie	wszys-	.	.	(>16d/LL	(<16B\LL	-wie	wszys-	.
16E/JJ)	16C#\JJ)	.	.	.	.	.	.	16c#/JJ)	16A#X\JJ)	.	.	.
4F#/	4D\	.	.	mi	-tko	.	.	4B/	4B\	mi	-tko	.
=24	=24	=24	=24	=24	=24	=24	=24	=24	=24	=24	=24	=24
8E/	8C#\	.	.	ser-	za	.	.	8A#X/	8F#\	ser-	za	.
4E/	4AA#X\	.	.	-dusz-	to-	.	.	4c#/	4F#\	-dusz-	to-	.
8E/	8C#\	.	.	-ko	-bą,	.	.	8A#/	8F#\	-ko	-bą,	.
=25	=25	=25	=25	=25	=25	=25	=25	=25	=25	=25	=25	=25
!	!	!	!	!	!LO:MO:mod=boś	!LO:MO:null:mod=<	!LO:MO:null:mod=<	!	!	!	!LO:MO:mod=boś	!
8D/	8D\	.	.	do	Boś	.	.	8F#/	8F#\	do	Boś	<
!	!	!	!	!	!	!LO:HP:b	!LO:HP:b	!	!	!	!	!
!	!	!	!	!	!	!LO:MO:null:mod=.	!LO:MO:null:mod=.	!	!	!	!	!
8D/	8D\	.	.	cię	tak	<	<	8F#/	8F#\	cię	tak	.
8E/	8C#\	.	.	nie	bar-	.	.	8F#/	8F#\	nie	bar-	.
8E/	8FF#\	.	.	wy-	-dzo	[	[	(<16G#X/LL	8F#\	wy-	-dzo	[
.	.	.	.	.	.	.	.	16A#X/JJ)	.	.	.	.
=26	=26	=26	=26	=26	=26	=26	=26	=26	=26	=26	=26	=26
4D/	4BB\	.	.	-sko-	ład-	.	.	4B/	4F#\	-sko-	ład-	.
(<8An/L	4AAn\	.	.	-czy,	-ną,	.	.	(>8f#/L	(<8c#\L	-czy,	-ną,	.
8G/J)	.	.	.	.	.	.	.	8e/J)	8B\J)	.	.	.
!!LO:LB:g=original
=27	=27	=27	=27	=27	=27	=27	=27	=27	=27	=27	=27	=27
!	!	!	!	!	!	!LO:MO:null:mod=!LO&colon;DY&colon;ed=brack	!LO:MO:null:mod=!LO&colon;DY&colon;ed=brack	!	!	!	!	!
!	!	!	!	!	!	!	!	!	!	!	!	!
!	!	!	!	!	!LO:MO:mod=a	!LO:MO:null:mod=mf	!LO:MO:null:mod=mf	!	!	!LO:MO:mod=led-	!LO:MO:mod=a	!LO:DY:b:rj
8F#/	8D\	.	.	led-	A	.	.	8d/	8A\	Led-	A	mf
8D/	8FF#\	.	.	-wie	wszys-	.	.	(<16d/LL	8A\	-wie	wszys-	.
.	.	.	.	.	.	.	.	16c#/JJ)	.	.	.	.
4D/	(<8GG\L	.	.	mi	-tko	.	.	4B/	(<8A\L	mi	-tko	.
.	8BB\J)	.	.	.	.	.	.	.	8G\J)	.	.	.
=28	=28	=28	=28	=28	=28	=28	=28	=28	=28	=28	=28	=28
8C#/	8C#\	.	.	ser-	za	.	.	8A#X/	8F#\	ser-	za	.
4E/	4E\	.	.	-dusz-	to-	.	.	4c#/	4F#\	-dusz-	to-	.
8C#/	8C#\	.	.	-ko	-bą,	.	.	8A#/	8F#\	-ko	-bą,	.
=29	=29	=29	=29	=29	=29	=29	=29	=29	=29	=29	=29	=29
!	!	!	!	!	!LO:MO:mod=boś	!	!	!	!	!	!LO:MO:mod=boś	!
8AA#X/	8AA#\	.	.	do	Boś	.	.	8F#/	8F#\	do	Boś	.
!	!	!	!	!	!	!LO:HP:b	!LO:HP:b	!	!	!	!	!
8E/	8E\	.	.	cię	tak	>	>	8F#/	8F#\	cię	tak	>
8D/	8D\	.	.	nie	bar-	.	.	8F#/	8F#\	nie	bar-	.
8E/	8C#\	.	.	wy-	-dzo	.	.	(>16G#X/LL	8F#\	wy-	-dzo	.
.	.	.	.	.	.	]	]	16A#X/JJ)	.	.	.	]
=30	=30	=30	=30	=30	=30	=30	=30	=30	=30	=30	=30	=30
8D/	8BB\	.	.	-sko-	ład-	.	.	8B/	8F#\	-sko-	ład-	.
4D/	4BB\	.	.	-czy.]	-ną.	.	.	4B/	4F#\	-czy.	-ną.	.
!	!	!	!	!	!	!	!	!LO:TX:b:Bi:t=D.C. \nal Fine:mod=	!	!	!	!
8r	8ryy	.	.	.	.	.	.	8r	8ryy	.	.	.
*v	*v	*	*	*	*	*	*	*	*	*	*	*
*	*	*	*	*	*	*	*v	*v	*	*	*
!!LO:TX:a:B:t=:mod=Da Capo al Fine
==:|!	==:|!	==:|!	==:|!	==:|!	==:|!	==:|!	==:|!	==:|!	==:|!	==:|!
*-	*-	*-	*-	*-	*-	*-	*-	*-	*-	*-
!!!system-decoration: {(s1,s2)}
!!!RDF**kern: > = above
!!!RDF**kern: < = below
!!!RDF**kern: | = vertical stroke
!!!RDF**kern: N = linked
!!!RDF**kern: i = editorial accidental
!!!filter-modern: shed -e "s/LO:HP:(a|b|rj)/LO:hp:$1/L" | shed -e "s/TX(.*):t=P:/tx$1:t=P:/LG" | shed -e "s/:rj/:RJ/L" | shed -k -e "s/([^a-gA-Gn#X-])[<>]/$1/g" | shed -e "s/LO:DY:(a|b|rj)/LO:dy:$1/L" | shed -e "s/-//B" | autostem -r | tie -s  | modori -m | humtr -p
!!!ENC: Berenika Jozajtis
!!!END: 2021-06-01
!!!EED: Wojciech Jakubiak-Danek
!!!EEV: 2021-06-09
!!!ENC-modern: Andrzej Borzym
!!!END-modern: 2022-08-20
